assets/img/svg/iconcheck.svg

<svg width="50" height="45" viewBox="0 0 50 45" fill="none" xmlns="http://www.w3.org/2000/svg">
<g filter="url(#filter0_d_876_9070)">
<g clip-path="url(#clip0_876_9070)">
<path fill-rule="evenodd" clip-rule="evenodd" d="M26.4707 9.62402V11.2061C26.4707 11.5573 26.6101 11.8939 26.8585 12.1418C27.1064 12.3902 27.4431 12.5296 27.7942 12.5296H29.3763L26.4707 9.62402Z" fill="#1C62AE"/>
<path fill-rule="evenodd" clip-rule="evenodd" d="M27.7941 13.4118H29.5588C29.6757 13.4118 29.7882 13.4581 29.8707 13.541C29.9537 13.6235 30 13.736 30 13.8529V26.2059C30 26.5571 29.8606 26.8937 29.6122 27.1416C29.3643 27.39 29.0276 27.5294 28.6765 27.5294H16.3235C15.5925 27.5294 15 26.9369 15 26.2059C15 22.5146 15 14.0149 15 10.3235C15 9.97235 15.1394 9.63573 15.3878 9.38779C15.6357 9.13941 15.9724 9 16.3235 9H25.1471C25.3906 9 25.5882 9.19765 25.5882 9.44118V11.2059C25.5882 11.7909 25.8207 12.3521 26.2341 12.7659C26.6479 13.1793 27.2091 13.4118 27.7941 13.4118ZM16.894 23.8707L17.7763 24.7531C17.9484 24.9256 18.2281 24.9256 18.4001 24.7531L20.1649 22.9884C20.3369 22.8163 20.3369 22.5366 20.1649 22.3646C19.9928 22.1925 19.7131 22.1925 19.541 22.3646L18.0882 23.8174L17.5178 23.2469C17.3457 23.0749 17.066 23.0749 16.894 23.2469C16.7219 23.419 16.7219 23.6987 16.894 23.8707ZM21.6176 24H27.7941C28.0376 24 28.2353 23.8024 28.2353 23.5588C28.2353 23.3153 28.0376 23.1176 27.7941 23.1176H21.6176C21.3741 23.1176 21.1765 23.3153 21.1765 23.5588C21.1765 23.8024 21.3741 24 21.6176 24ZM16.894 20.3413L17.7763 21.2237C17.9484 21.3962 18.2281 21.3962 18.4001 21.2237L20.1649 19.459C20.3369 19.2869 20.3369 19.0072 20.1649 18.8351C19.9928 18.6631 19.7131 18.6631 19.541 18.8351L18.0882 20.2879L17.5178 19.7175C17.3457 19.5454 17.066 19.5454 16.894 19.7175C16.7219 19.8896 16.7219 20.1693 16.894 20.3413ZM21.6176 20.4706H27.7941C28.0376 20.4706 28.2353 20.2729 28.2353 20.0294C28.2353 19.7859 28.0376 19.5882 27.7941 19.5882H21.6176C21.3741 19.5882 21.1765 19.7859 21.1765 20.0294C21.1765 20.2729 21.3741 20.4706 21.6176 20.4706ZM16.894 16.8119L17.7763 17.6943C17.9484 17.8668 18.2281 17.8668 18.4001 17.6943L20.1649 15.9296C20.3369 15.7575 20.3369 15.4778 20.1649 15.3057C19.9928 15.1337 19.7131 15.1337 19.541 15.3057L18.0882 16.7585L17.5178 16.1881C17.3457 16.016 17.066 16.016 16.894 16.1881C16.7219 16.3601 16.7219 16.6399 16.894 16.8119ZM21.6176 16.9412H27.7941C28.0376 16.9412 28.2353 16.7435 28.2353 16.5C28.2353 16.2565 28.0376 16.0588 27.7941 16.0588H21.6176C21.3741 16.0588 21.1765 16.2565 21.1765 16.5C21.1765 16.7435 21.3741 16.9412 21.6176 16.9412Z" fill="#1C62AE"/>
</g>
</g>
<defs>
<filter id="filter0_d_876_9070" x="0" y="-5" width="50" height="50" filterUnits="userSpaceOnUse" color-interpolation-filters="sRGB">
<feFlood flood-opacity="0" result="BackgroundImageFix"/>
<feColorMatrix in="SourceAlpha" type="matrix" values="0 0 0 0 0 0 0 0 0 0 0 0 0 0 0 0 0 0 127 0" result="hardAlpha"/>
<feOffset dx="2" dy="2"/>
<feGaussianBlur stdDeviation="3.5"/>
<feComposite in2="hardAlpha" operator="out"/>
<feColorMatrix type="matrix" values="0 0 0 0 0.555 0 0 0 0 0.555 0 0 0 0 0.555 0 0 0 0.18 0"/>
<feBlend mode="normal" in2="BackgroundImageFix" result="effect1_dropShadow_876_9070"/>
<feBlend mode="normal" in="SourceGraphic" in2="effect1_dropShadow_876_9070" result="shape"/>
</filter>
<clipPath id="clip0_876_9070">
<rect x="5" width="36" height="36" rx="5" fill="white"/>
</clipPath>
</defs>
</svg>

<svg width="50" height="45" fill="none" xmlns="http://www.w3.org/2000/svg"><g filter="url(#filter0_d_876_9070)"><g clip-path="url(#clip0_876_9070)" fill-rule="evenodd" clip-rule="evenodd" fill="#1C62AE"><path d="M26.47 9.624v1.582a1.322 1.322 0 001.324 1.324h1.582l-2.905-2.906z"/><path d="M27.794 13.412h1.765a.44.44 0 01.441.44v12.354a1.322 1.322 0 01-1.323 1.323H16.323A1.323 1.323 0 0115 26.206V10.323A1.322 1.322 0 0116.323 9h8.824c.244 0 .441.198.441.441v1.765a2.208 2.208 0 002.206 2.206zm-10.9 10.459l.882.882a.44.44 0 00.624 0l1.765-1.765a.442.442 0 00-.624-.623l-1.453 1.452-.57-.57a.442.442 0 00-.624.624zm4.724.129h6.176a.441.441 0 000-.882h-6.176a.441.441 0 000 .882zm-4.724-3.659l.882.883a.44.44 0 00.624 0l1.765-1.765a.442.442 0 00-.624-.624l-1.453 1.453-.57-.57a.441.441 0 00-.624.623zm4.724.13h6.176a.441.441 0 000-.883h-6.176a.441.441 0 000 .883zm-4.724-3.66l.882.883a.44.44 0 00.624 0l1.765-1.764a.442.442 0 00-.624-.624l-1.453 1.453-.57-.57a.441.441 0 00-.624.623zm4.724.13h6.176a.441.441 0 000-.882h-6.176a.441.441 0 000 .882z"/></g></g><defs><clipPath id="clip0_876_9070"><rect x="5" width="36" height="36" rx="5" fill="#fff"/></clipPath><filter id="filter0_d_876_9070" x="0" y="-5" width="50" height="50" filterUnits="userSpaceOnUse" color-interpolation-filters="sRGB"><feFlood flood-opacity="0" result="BackgroundImageFix"/><feColorMatrix in="SourceAlpha" values="0 0 0 0 0 0 0 0 0 0 0 0 0 0 0 0 0 0 127 0" result="hardAlpha"/><feOffset dx="2" dy="2"/><feGaussianBlur stdDeviation="3.5"/><feComposite in2="hardAlpha" operator="out"/><feColorMatrix values="0 0 0 0 0.555 0 0 0 0 0.555 0 0 0 0 0.555 0 0 0 0.18 0"/><feBlend in2="BackgroundImageFix" result="effect1_dropShadow_876_9070"/><feBlend in="SourceGraphic" in2="effect1_dropShadow_876_9070" result="shape"/></filter></defs></svg>
